X:1
T:Tripping up the stairs
Z: Contributed 2018-09-13 16:55:29 by matt kaufman aggrieved@yopmail.com
K:D
L:1/8
M:6/8

|:FAA GBB|FAd fed|cBc ABc|dfe dAG|FAA GBB|FAd fed|cBC ABc|dfe d--:|dBB FBB|dBd fed|cAA eAA|cBc edc|dBB fBB|dBd fed|cBc ABc|dfe d--:|
